www/assets/icons/view_week.svg

<svg width="24" height="24" viewBox="0 0 24 24" xmlns="http://www.w3.org/2000/svg" fill='currentColor'><path d="M5.33 20H4C2.9 20 2 19.1 2 18V6C2 4.9 2.9 4 4 4H5.33C6.43 4 7.33 4.9 7.33 6V18C7.33 19.1 6.44 20 5.33 20ZM22 18V6C22 4.9 21.1 4 20 4H18.67C17.57 4 16.67 4.9 16.67 6V18C16.67 19.1 17.57 20 18.67 20H20C21.11 20 22 19.1 22 18ZM14.67 18V6C14.67 4.9 13.77 4 12.67 4H11.34C10.24 4 9.34 4.9 9.34 6V18C9.34 19.1 10.24 20 11.34 20H12.67C13.77 20 14.67 19.1 14.67 18Z"/></svg>

<svg xmlns="http://www.w3.org/2000/svg" width="24" height="24" viewBox="0 0 24 24" fill='currentColor'><path d="M5.33 20H4c-1.1 0-2-.9-2-2V6c0-1.1.9-2 2-2h1.33c1.1 0 2 .9 2 2v12a2 2 0 0 1-2 2M22 18V6c0-1.1-.9-2-2-2h-1.33c-1.1 0-2 .9-2 2v12c0 1.1.9 2 2 2H20a2 2 0 0 0 2-2m-7.33 0V6c0-1.1-.9-2-2-2h-1.33c-1.1 0-2 .9-2 2v12c0 1.1.9 2 2 2h1.33c1.1 0 2-.9 2-2"/></svg>
